icon_installer/data/icons/scalable/actions/show-harddisk-symbolic.svg

<?xml version="1.0" encoding="UTF-8"?>
<svg height="16px" viewBox="0 0 16 16" width="16px" xmlns="http://www.w3.org/2000/svg">
    <g fill="#222222">
        <path d="m 8 3 c 2.210938 0 4 1.789062 4 4 s -1.8125 4.3125 -4 4 h -4 v -4 c 0 -2.210938 1.789062 -4 4 -4 z m 0 2 c -1.105469 0 -2 0.894531 -2 2 s 0.894531 2 2 2 s 2 -0.894531 2 -2 s -0.894531 -2 -2 -2 z m 0 0"/>
        <path d="m 3.199219 0 c -1.203125 0 -2.199219 1 -2.199219 2.199219 v 11.601562 c 0 1.199219 0.996094 2.199219 2.199219 2.199219 h 9.605469 c 1.203124 0 2.195312 -1 2.195312 -2.199219 v -11.601562 c 0 -1.199219 -0.992188 -2.199219 -2.195312 -2.199219 z m 0 2 h 9.605469 c 0.125 0 0.195312 0.070312 0.195312 0.199219 v 11.601562 c 0 0.128907 -0.070312 0.199219 -0.195312 0.199219 h -9.605469 c -0.125 0 -0.199219 -0.070312 -0.199219 -0.199219 v -11.601562 c 0 -0.128907 0.074219 -0.199219 0.199219 -0.199219 z m 0 0"/>
    </g>
</svg>

<svg xmlns="http://www.w3.org/2000/svg" width="16" height="16"><g fill="#222"><path d="M8 3c2.21 0 4 1.79 4 4s-1.813 4.313-4 4H4V7c0-2.21 1.79-4 4-4zm0 2a2 2 0 1 0 2 2 2 2 0 0 0-2-2zm0 0"/><path d="M3.2 0C1.995 0 1 1 1 2.2v11.6C1 15 1.996 16 3.2 16h9.605C14.008 16 15 15 15 13.8V2.2C15 1 14.008 0 12.805 0zm0 2h9.605c.125 0 .195.07.195.2v11.6c0 .13-.07.2-.195.2H3.199C3.074 14 3 13.93 3 13.8V2.2c0-.13.074-.2.2-.2zm0 0"/></g></svg>
